X: 102
T: No_61_Juggler's_Song_(a).krn
N: Derived from No_61_Juggler's_Song_(a).krn
%%abc-version 2.0
%%abcx-abcm2ps-target-version 5.9.1 (29 Sep 2008)
%%abc-creator hum2abc beta
%%abcx-conversion-date 2019/03/15 08:35:45
%%humdrum-veritas 519876850
%%humdrum-veritas-data 3664749240
%%linebreak <none>
%%barnumbers 0
L: 1/8
M: 2/4
K: C clef=bass
[K:clef=bass][M:2/4]z2z z/ D/ | 
D2_E2 ||  
[M:3/4]D2D3z ||  
[M:2/4](D3/C/)C2 | 
D4- | 
D2z3/ D/ | 
C2D2 ||  
[M:3/4](DC)A,4 ||  
[M:2/4](A,3/G,/)G,2 | 
G,4- ||  
[M:3/4]G,2z2z3/ C/ ||  
[M:2/4]C2C2 ||  
[M:3/4]C2C zz2 ||  
[M:2/4](C3/A,/)A,2 | 
C4- | 
C2z3/ C/ | 
A,2D2 ||  
[M:3/4](DC)A,3z ||  
[M:2/4](A,3/G,/)G,2 | 
G,4 ||  
[M:3/4]G,2z2z _B, | 
A,2(C4 ||  
[M:2/4]G,2)G,2- | 
G, zG,2 | 
!accent!G,3/E,/ E, z/ A,/ | 
G,2A,G, | 
(A,(G,)(G,2) | 
G,2)(E,D,) | 
C,2C,2 | 
C,4- | 
C,4 |]  



